X:1
T: The Duchess of Richmond
C:William Marshall
R:Reel
Q: 232
K:Bb
M:4/4
L:1/8
|:f|ed cA BF B2|df ga bf dB|e2 d=B cG c2|cd ef ge dc|
Bc1/2d1/2 BF BF B2|Bc de fb dB|Eg fe df dB|FB Ac B2 Bf|
bB aB gB fB|df ga bf dB|cf =ef df ef|db ag f=e dc|
dB c1/2B1/2A1/2B1/2 FB c1/2B1/2A1/2B1/2|GB FB EB DB|Eg fe df dB|FB Ac B2 B:|
